X:62
T:Duke's March ThFife.62, The
T:Bodmin Riding March,aka.  ThFife.62, The
B:Thompson, C. & Thompson, S., 'The Compleat Tutor for the Fife', London, c.1765-1780.
S:Digitised by National Library of Scotland at: https://archive.org/details/nlsmusic
Z:vmp Roger Hare, 2019.
M:C
L:1/8
Q:1/2=100
K:G
|: (D/E/F/) | G2 G2 G2 G2 | AGFG AGFG | B2 B2 B2 dc | BABc BABc |
d2 d2 d2 ed | c2 c2 c2 dc | B2 AG edcB | A6 :|
|: (D//E//F//G//) |A2 A2 A2 A2 | AGFE D2 GA | B2 B2 B2 B2 | dcBA G2 dc |
B2 AB G2 dc | B2 AB G2 c2 | Bgfg B2 !trill!A2 | G6 :|

